X:215
T:Comin' thro' the Rye
R:Strathspey
B:W. Hamilton "Universal Tune-Book" Vol. 2 Glasgow 1846 p.44 #1
B:http://s3-eu-west-1.amazonaws.com/itma.dl.printmaterial/book_pdfs/hamiltonvol2web.pdf
C:A: Traditional Scottish.  B: Colin Hume, 2018.
M:4/4
L:1/8
S:Colin Hume's website,  colinhume.com  - chords can also be printed below the stave.
%%MIDI program 21     Accordion
%%MIDI chordprog 21   Accordion
%%MIDI bassprog 33    Electric Bass (finger)
Q:1/4=118
K:G
%%center Play the tune 6 times for 3 times through the dance.
P:A
"G"D>D D<B "Am"A>G A<B | "D7"D<D E>D "G"G4 | "G"D>D d<B "Am"A>G A<B | "D7"D>D E<D "G"G4 |
"G"d>B G<B "D7"A>G A<B | "G7"d>B (3GBd "C"e3e | "G"d>B "Am"c>A "G/B"B>G "C"A>B | "D7"D<D E>D "G"G4 |
P:B
"D"F<A A>B "D7"A>F E<D | "G"G<B B>c "G7"B3B | "C"c>B ce "G"dB AG | "A7"E<A A>B"D"A4 |
"D"F<A A>B "D7"A>F E<D | "G"G<B B>c "G7"B3d | "C"e>c "G/B"d>B "Am"c>A "G"B>d | "D7"D<D E>D "G"G4 |]

